app/assets/images/icons/play-solid.svg

<?xml version="1.0" encoding="UTF-8" standalone="no"?>
<svg width="30px" height="30px" viewBox="0 0 30 30" version="1.1" xmlns="http://www.w3.org/2000/svg" xmlns:xlink="http://www.w3.org/1999/xlink">
    <!-- Generator: Sketch 3.7.2 (28276) - http://www.bohemiancoding.com/sketch -->
    <title>play-solid</title>
    <desc>Created with Sketch.</desc>
    <defs></defs>
    <g id="Icons" stroke="none" stroke-width="1" fill="none" fill-rule="evenodd">
        <g id="play-solid" fill="#050505">
            <path d="M15,30 C23.2842712,30 30,23.2842712 30,15 C30,6.71572875 23.2842712,0 15,0 C6.71572875,0 0,6.71572875 0,15 C0,23.2842712 6.71572875,30 15,30 Z M12,11.0085302 C12,9.8992496 12.751855,9.50123665 13.6717387,10.1144924 L19.3282613,13.8855076 C20.2515371,14.5010247 20.248145,15.5012366 19.3282613,16.1144924 L13.6717387,19.8855076 C12.7484629,20.5010247 12,20.0980496 12,18.9914698 L12,11.0085302 Z" id="Combined-Shape"></path>
        </g>
    </g>
</svg>

<?xml version="1.0" encoding="UTF-8" standalone="no"?>
<svg width="30" height="30" viewBox="0 0 30 30" xmlns="http://www.w3.org/2000/svg">
  <path d="M15 30c8.284 0 15-6.716 15-15 0-8.284-6.716-15-15-15C6.716 0 0 6.716 0 15c0 8.284 6.716 15 15 15zm-3-18.991c0-1.11.752-1.508 1.672-.895l5.656 3.772c.924.615.92 1.615 0 2.228l-5.656 3.772c-.924.615-1.672.212-1.672-.895V11.01z" fill="#050505" fill-rule="evenodd"/>
</svg>
